ru/_assets/yadisk-icon.svg

<svg width="16" height="16" viewBox="0 0 16 16" fill="none" xmlns="http://www.w3.org/2000/svg">
<path fill-rule="evenodd" clip-rule="evenodd" d="M0.609783 10.3393L0.83009 9.94793C1.16915 9.34558 1.41451 8.68123 1.63836 7.96378C1.72467 7.68716 1.81334 7.38232 1.90435 7.06941C2.03435 6.62246 2.16913 6.15904 2.30868 5.7379C2.67564 4.63046 3.39464 3.32911 4.80859 2.61633C6.60515 1.71067 8.53815 2.07911 9.71693 2.46477C10.5644 2.74204 11.3296 2.98173 12.1012 3.02889L13.5786 3.1192L13.5778 3.13083C14.6512 3.16969 15.4448 3.49233 15.8003 4.12016C16.7771 5.84525 14.0766 9.22117 9.76866 11.6605C5.4607 14.0998 1.17655 14.6788 0.199748 12.9537C-0.180739 12.2817 -0.00328611 11.3593 0.609783 10.3393ZM3.68935 6.1954C3.99494 5.27316 4.53197 4.38462 5.46332 3.91512C6.74254 3.27026 8.21126 3.50252 9.26466 3.84716C9.33365 3.86973 9.40341 3.89253 9.47391 3.9154C8.43112 4.28835 7.33201 4.79015 6.23134 5.41338C5.15179 6.02466 4.17319 6.69475 3.32811 7.38294C3.44282 6.98655 3.55443 6.60256 3.68935 6.1954ZM1.72543 11.3225L1.86641 11.072C1.99804 10.8549 2.16426 10.6166 2.36957 10.3599C3.31906 9.17293 4.91397 7.83079 6.94801 6.67905C8.98204 5.52731 10.9535 4.85008 12.4598 4.64651C13.2172 4.54414 13.7808 4.57201 14.1491 4.66325C14.3275 4.70743 14.4311 4.75937 14.4844 4.7945C14.5358 4.82842 14.5424 4.84009 14.5451 4.90164C14.5478 4.96538 14.539 5.081 14.4851 5.2567C14.3739 5.61946 14.1079 6.11707 13.6304 6.71394C13.4084 6.99152 13.1511 7.27758 12.8611 7.56771C12.8528 7.55052 12.8439 7.53358 12.8345 7.5169C12.2922 6.55927 10.0183 6.82166 7.7554 8.10296C5.49254 9.38427 4.09771 11.1993 4.63995 12.1569C4.64949 12.1738 4.65956 12.1902 4.67016 12.2063C4.27144 12.306 3.89307 12.3797 3.54022 12.4274C2.78277 12.5297 2.21921 12.5018 1.85091 12.4106C1.67253 12.3664 1.56885 12.3145 1.5156 12.2794C1.46418 12.2454 1.45757 12.2338 1.45493 12.1722C1.4522 12.1085 1.461 11.9929 1.51488 11.8172C1.55915 11.6728 1.62854 11.5074 1.72543 11.3225ZM11.2747 8.4001C11.223 8.40337 11.1671 8.40829 11.1069 8.41523C10.424 8.49403 9.47597 8.80019 8.47207 9.36863C7.46816 9.93708 6.71794 10.5925 6.29904 11.1376C6.26213 11.1856 6.22916 11.231 6.19974 11.2737C6.25147 11.2704 6.30737 11.2655 6.36754 11.2586C7.05048 11.1798 7.99847 10.8736 9.00237 10.3052C10.0063 9.73673 10.7565 9.0813 11.1754 8.53621C11.2123 8.48818 11.2453 8.44278 11.2747 8.4001Z" fill="black" fill-opacity="0.85"/>
</svg>

<svg xmlns="http://www.w3.org/2000/svg" width="16" height="16" fill="none" viewBox="0 0 16 16">
    <path fill="#000" fill-opacity=".85" fill-rule="evenodd" d="m.61 10.34.22-.392c.34-.602.585-1.267.808-1.984.087-.277.175-.582.266-.895.13-.447.265-.91.405-1.331.367-1.108 1.086-2.409 2.5-3.122 1.796-.905 3.73-.537 4.908-.151.847.277 1.613.517 2.384.564l1.478.09-.001.012c1.073.039 1.867.361 2.222.99.977 1.724-1.723 5.1-6.031 7.54C5.46 14.1 1.177 14.678.199 12.954c-.38-.672-.202-1.595.41-2.615Zm3.08-4.145c.305-.922.842-1.81 1.773-2.28 1.28-.645 2.748-.412 3.802-.068.069.023.138.046.209.068A20.972 20.972 0 0 0 6.23 5.413a21.024 21.024 0 0 0-2.903 1.97 31.7 31.7 0 0 1 .361-1.188Zm-1.965 5.127.141-.25a6.78 6.78 0 0 1 .504-.712c.95-1.187 2.544-2.53 4.578-3.68 2.034-1.153 4.005-1.83 5.512-2.033.757-.103 1.32-.075 1.69.016.178.044.281.096.334.131.052.034.058.046.061.108a1.09 1.09 0 0 1-.06.355c-.111.362-.377.86-.855 1.457-.222.278-.479.564-.769.854a.906.906 0 0 0-.027-.051c-.542-.958-2.816-.695-5.079.586-2.262 1.281-3.657 3.096-3.115 4.054l.03.05a10.45 10.45 0 0 1-1.13.22c-.757.103-1.32.075-1.69-.016a1.1 1.1 0 0 1-.334-.132c-.052-.034-.058-.045-.061-.107-.003-.064.006-.18.06-.355.044-.144.114-.31.21-.495Zm9.55-2.922a3.267 3.267 0 0 0-.168.015c-.683.079-1.631.385-2.635.954-1.004.568-1.754 1.223-2.173 1.769-.037.048-.07.093-.1.136a3.34 3.34 0 0 0 .169-.015c.682-.08 1.63-.385 2.634-.954 1.004-.568 1.755-1.224 2.173-1.769.037-.048.07-.093.1-.136Z" clip-rule="evenodd"/>
</svg>
